src/assets/outline/QuoteUpCircle.svg

<svg width="24" height="24" viewBox="0 0 24 24"  xmlns="http://www.w3.org/2000/svg">
<path d="M16.9999 12.59H14.3199C13.2299 12.59 12.3799 11.74 12.3799 10.65V9.15997C12.3799 8.06997 13.2299 7.21997 14.3199 7.21997H15.8099C16.8799 7.21997 17.7499 8.08997 17.7499 9.15997V11.83C17.7499 12.25 17.4099 12.59 16.9999 12.59ZM14.3199 8.71997C13.9999 8.71997 13.8799 8.95997 13.8799 9.15997V10.65C13.8799 10.85 13.9899 11.09 14.3199 11.09H16.2499V9.16998C16.2499 8.92998 16.0499 8.72998 15.8099 8.72998H14.3199V8.71997Z" />
<path d="M14.91 16.7801C14.65 16.7801 14.4 16.65 14.26 16.41C14.05 16.05 14.17 15.5901 14.52 15.3801C15.88 14.5701 16.25 14.3601 16.25 11.8401C16.25 11.4301 16.59 11.0901 17 11.0901C17.41 11.0901 17.75 11.4301 17.75 11.8401C17.75 14.9201 17.08 15.61 15.29 16.67C15.17 16.74 15.04 16.7801 14.91 16.7801Z" />
<path d="M10.8602 12.59H8.18022C7.09022 12.59 6.24023 11.74 6.24023 10.65V9.15997C6.24023 8.06997 7.09022 7.21997 8.18022 7.21997H9.67023C10.7402 7.21997 11.6102 8.08997 11.6102 9.15997V11.83C11.6102 12.25 11.2802 12.59 10.8602 12.59ZM8.19023 8.71997C7.87023 8.71997 7.75023 8.95997 7.75023 9.15997V10.65C7.75023 10.85 7.86023 11.09 8.19023 11.09H10.1202V9.16998C10.1202 8.92998 9.92022 8.72998 9.68022 8.72998H8.19023V8.71997Z" />
<path d="M8.76983 16.7801C8.50983 16.7801 8.25982 16.65 8.11982 16.41C7.90982 16.05 8.02983 15.5901 8.37983 15.3801C9.73983 14.5701 10.1098 14.3601 10.1098 11.8401C10.1098 11.4301 10.4498 11.0901 10.8598 11.0901C11.2698 11.0901 11.6098 11.4301 11.6098 11.8401C11.6098 14.9201 10.9398 15.61 9.14982 16.67C9.02982 16.74 8.89983 16.7801 8.76983 16.7801Z" />
<path d="M12 22.75C6.07 22.75 1.25 17.93 1.25 12C1.25 6.07 6.07 1.25 12 1.25C17.93 1.25 22.75 6.07 22.75 12C22.75 17.93 17.93 22.75 12 22.75ZM12 2.75C6.9 2.75 2.75 6.9 2.75 12C2.75 17.1 6.9 21.25 12 21.25C17.1 21.25 21.25 17.1 21.25 12C21.25 6.9 17.1 2.75 12 2.75Z" />
</svg>

<?xml version="1.0" encoding="UTF-8"?>
<svg width="24" height="24" viewBox="0 0 24 24" xmlns="http://www.w3.org/2000/svg">
 <path d="m17 12.59h-2.68c-1.09 0-1.94-0.85-1.94-1.94v-1.49c0-1.09 0.85-1.94 1.94-1.94h1.49c1.07 0 1.94 0.87 1.94 1.94v2.67c0 0.42-0.34 0.76-0.75 0.76zm-2.68-3.87c-0.32 0-0.44 0.24-0.44 0.44v1.49c0 0.2 0.11 0.44 0.44 0.44h1.93v-1.92c0-0.24-0.2-0.44-0.44-0.44h-1.49v-0.01001z"/>
 <path d="m14.91 16.78c-0.26 0-0.51-0.1301-0.65-0.3701-0.21-0.36-0.09-0.8199 0.26-1.0299 1.36-0.81 1.73-1.02 1.73-3.54 0-0.41 0.34-0.75 0.75-0.75s0.75 0.34 0.75 0.75c0 3.08-0.67 3.7699-2.46 4.8299-0.12 0.07-0.25 0.1101-0.38 0.1101z"/>
 <path d="m10.86 12.59h-2.68c-1.09 0-1.94-0.85-1.94-1.94v-1.49c0-1.09 0.84999-1.94 1.94-1.94h1.49c1.07 0 1.94 0.87 1.94 1.94v2.67c0 0.42-0.33 0.76-0.75 0.76zm-2.67-3.87c-0.32 0-0.44 0.24-0.44 0.44v1.49c0 0.2 0.11 0.44 0.44 0.44h1.93v-1.92c0-0.24-0.19998-0.44-0.43998-0.44h-1.49v-0.01001z"/>
 <path d="m8.7698 16.78c-0.26 0-0.51001-0.1301-0.65001-0.3701-0.21-0.36-0.08999-0.8199 0.26001-1.0299 1.36-0.81 1.73-1.02 1.73-3.54 0-0.41 0.34-0.75 0.75-0.75s0.75 0.34 0.75 0.75c0 3.08-0.67 3.7699-2.46 4.8299-0.12 0.07-0.24999 0.1101-0.37999 0.1101z"/>
 <path d="m12 22.75c-5.93 0-10.75-4.82-10.75-10.75s4.82-10.75 10.75-10.75 10.75 4.82 10.75 10.75-4.82 10.75-10.75 10.75zm0-20c-5.1 0-9.25 4.15-9.25 9.25s4.15 9.25 9.25 9.25 9.25-4.15 9.25-9.25-4.15-9.25-9.25-9.25z"/>
</svg>
